X: 21694
T: Kiltimagh, The
R: jig
M: 6/8
K: Gmajor
D|GBd edB|ded dBA|G2d edB|ABG AFD|
GBd edB|dzd gag|edB AGA|BGF G2:|
d|ggd edB|ded def|gzd edB|ABG ABd|
g2d edB|dBd gag|edB AGA|BGF G2:|

